static/fa/svgs/solid/share-nodes.svg

<svg xmlns="http://www.w3.org/2000/svg" viewBox="0 0 448 512"><!--! Font Awesome Free 6.1.1 by @fontawesome - https://fontawesome.com License - https://fontawesome.com/license/free (Icons: CC BY 4.0, Fonts: SIL OFL 1.1, Code: MIT License) Copyright 2022 Fonticons, Inc.--><path d="M448 127.1c0 53.9-43 96-96 96-25.9 0-49.4-9.3-66.6-26l-94.1 47c.5 3.9-.2 7-.2 11.9 0 4 .7 7.1.2 11.9l94.1 47c17.2-16.7 40.7-26.9 66.6-26.9 53 0 96 42.1 96 96 0 53-43 96-96 96-53.9 0-96-43-96-96 0-4.9.2-8 .7-11.9l-94.1-47C145.4 341.8 121.9 352 96 352c-53.02 0-96-43-96-96 0-53.9 42.98-96 96-96 25.9 0 49.4 10.2 66.6 26.9l94.1-47c-.5-4.8-.7-7.9-.7-11.9 0-53.02 42.1-96 96-96 53 0 96 42.98 96 96v-.9zm-352.9 160c18.6 0 32-13.4 32-32 0-16.8-13.4-32-32-32-16.77 0-32 15.2-32 32 0 18.6 15.23 32 32 32zM352 95.1c-17.7 0-32 15.2-32 32 0 18.6 14.3 32 32 32s32-13.4 32-32c0-16.8-14.3-32-32-32zm0 320.9c17.7 0 32-14.3 32-32s-14.3-32-32-32-32 14.3-32 32 14.3 32 32 32z"/></svg>

<svg xmlns="http://www.w3.org/2000/svg" viewBox="0 0 448 512"><!--! Font Awesome Free 6.1.1 by @fontawesome - https://fontawesome.com License - https://fontawesome.com/license/free (Icons: CC BY 4.0, Fonts: SIL OFL 1.1, Code: MIT License) Copyright 2022 Fonticons, Inc. --><path d="M448 127.1C448 181 405 223.1 352 223.1C326.1 223.1 302.6 213.8 285.4 197.1L191.3 244.1C191.8 248 191.1 251.1 191.1 256C191.1 260 191.8 263.1 191.3 267.9L285.4 314.9C302.6 298.2 326.1 288 352 288C405 288 448 330.1 448 384C448 437 405 480 352 480C298.1 480 256 437 256 384C256 379.1 256.2 376 256.7 372.1L162.6 325.1C145.4 341.8 121.9 352 96 352C42.98 352 0 309 0 256C0 202.1 42.98 160 96 160C121.9 160 145.4 170.2 162.6 186.9L256.7 139.9C256.2 135.1 256 132 256 128C256 74.98 298.1 32 352 32C405 32 448 74.98 448 128L448 127.1zM95.1 287.1C113.7 287.1 127.1 273.7 127.1 255.1C127.1 238.3 113.7 223.1 95.1 223.1C78.33 223.1 63.1 238.3 63.1 255.1C63.1 273.7 78.33 287.1 95.1 287.1zM352 95.1C334.3 95.1 320 110.3 320 127.1C320 145.7 334.3 159.1 352 159.1C369.7 159.1 384 145.7 384 127.1C384 110.3 369.7 95.1 352 95.1zM352 416C369.7 416 384 401.7 384 384C384 366.3 369.7 352 352 352C334.3 352 320 366.3 320 384C320 401.7 334.3 416 352 416z"/></svg>
